X: 341
T:Four Provinces Flings #3
T:Lady Mary Ramsay (Kerr's MM Bk1p10)
T:The Queen's Shilling (DMI752)
S:Moloney/O'Donnell/Egan
Z:https://nigelgatherer.com/
M:4/4
L:1/8
K:G
z2 | G3 B d<BB>c | d<Bg>B d>BA>B | G3 B d<BB>d | (3efg (3dcB A2 :|
g>a | b<gg>b a<ff>a | g2 gd e>fg>a | b<gg>b a<f f2 | (3gfe (3dcB A2 g>a |
    | b<gg>b a<ff>a | g2 gd e>fg>a | b>ga>f g>fe>d | (3efg (3dcB A2 |]

